icons/svg/playlist-remove.svg

﻿<?xml version="1.0" encoding="utf-8"?>
<!DOCTYPE svg PUBLIC "-//W3C//DTD SVG 1.1//EN" "http://www.w3.org/Graphics/SVG/1.1/DTD/svg11.dtd">
<svg xmlns="http://www.w3.org/2000/svg" xmlns:xlink="http://www.w3.org/1999/xlink" version="1.1" baseProfile="full" width="24" height="24" viewBox="0 0 24.00 24.00" enable-background="new 0 0 24.00 24.00" xml:space="preserve">
	<path fill="#000000" fill-opacity="1" stroke-width="1.33333" stroke-linejoin="miter" d="M 2,6L 2,8L 14,8L 14,6L 2,6 Z M 2,10L 2,12L 10,12L 10,10L 2,10 Z M 14.1719,10.7578L 12.7578,12.1719L 15.5859,15L 12.7578,17.8281L 14.1719,19.2422L 17,16.4141L 19.8281,19.2422L 21.2422,17.8281L 18.4141,15L 21.2422,12.1719L 19.8281,10.7578L 17,13.5859L 14.1719,10.7578 Z M 2,14L 2,16L 10,16L 10,14L 2,14 Z "/>
</svg>

<svg xmlns="http://www.w3.org/2000/svg" version="1.1" baseProfile="full" width="24" height="24" viewBox="0 0 24.00 24.00" xml:space="preserve"><path fill="#000" fill-opacity="1" stroke-width="1.333" stroke-linejoin="miter" d="M2 6v2h12V6H2zm0 4v2h8v-2H2zm12.172.758l-1.414 1.414L15.586 15l-2.828 2.828 1.414 1.414L17 16.414l2.828 2.828 1.414-1.414L18.414 15l2.828-2.828-1.414-1.414L17 13.586l-2.828-2.828zM2 14v2h8v-2H2z"/></svg>
